build/img/business_card/tg.svg

<svg width="42" height="42" viewBox="0 0 42 42" fill="none" xmlns="http://www.w3.org/2000/svg">
<path fill-rule="evenodd" clip-rule="evenodd" d="M24.9693 40.72C16.3119 41.6944 6.16958 40.9081 2.63415 32.6712C-1.51242 23.0104 1.47983 11.3203 9.61975 4.95832C17.424 -1.14133 28.4975 0.144276 36.1625 6.46612C42.383 11.5965 40.889 20.8728 38.3471 28.6515C36.2522 35.0624 31.4804 39.9872 24.9693 40.72Z" fill="#EF7F1A"/>
<path d="M10.331 21.0697L22.8392 16.0236C24.0739 15.498 28.2613 13.8161 28.2613 13.8161C28.2613 13.8161 30.1939 13.0803 30.0328 14.8673C29.9791 15.6031 29.5499 18.1788 29.1202 20.9644L27.7782 29.2166C27.7782 29.2166 27.6708 30.4255 26.7566 30.6357C25.8425 30.846 24.3409 29.8999 24.0727 29.6896C23.858 29.532 20.0464 27.1666 18.6505 26.0103C18.2747 25.695 17.8453 25.0641 18.7042 24.3283C20.6369 22.5937 22.9454 20.4386 24.3409 19.072C24.9851 18.4413 25.6293 16.9695 22.9452 18.7568L15.3759 23.7503C15.3759 23.7503 14.5168 24.2759 12.9065 23.8029C11.2961 23.3298 9.41713 22.6991 9.41713 22.6991C9.41713 22.6991 8.1287 21.9107 10.3297 21.0698L10.331 21.0697Z" fill="white"/>
</svg>

<svg width="42" height="42" fill="none" xmlns="http://www.w3.org/2000/svg"><path fill-rule="evenodd" clip-rule="evenodd" d="M24.97 40.72c-8.658.974-18.8.188-22.336-8.049-4.146-9.66-1.154-21.35 6.986-27.713 7.804-6.1 18.877-4.814 26.543 1.508 6.22 5.13 4.726 14.407 2.184 22.185-2.095 6.411-6.867 11.336-13.378 12.069Z" fill="#EF7F1A"/><path d="m10.331 21.07 12.508-5.046c1.235-.526 5.422-2.208 5.422-2.208s1.933-.736 1.772 1.051c-.054.736-.483 3.312-.913 6.097l-1.342 8.253s-.107 1.209-1.021 1.419c-.915.21-2.416-.736-2.684-.946-.215-.158-4.027-2.523-5.422-3.68-.376-.315-.806-.946.053-1.682a202.862 202.862 0 0 0 5.637-5.256c.644-.63 1.288-2.102-1.396-.315l-7.57 4.993s-.858.526-2.469.053c-1.61-.473-3.489-1.104-3.489-1.104s-1.288-.788.913-1.63h.001Z" fill="#fff"/></svg>
